!!!COM: Music21
!!!OTL: Muiñeira de Campolameiro
!!!OMV: pezas_muineiras_muineira-de-campolameiro_muineira-de-campolameiro-partitura-1.musicxml
**kern
*I"Gaita
*I'Bag
*clefG^2
*k[]
*M6/8
*MM195
=1
!LO:TX:a:t=[quarter-dot]=130
4.r
8ccL
8ee
8ffJ
=||
8ggL
8ee
8ggJ
8cccL
8bb
8aaJ
=
8ggL
8ee
8ggJ
8bbL
8aa
8ggJ
=
8ffL
8dd
8ffJ
8aaL
8gg
8ffJ
=
8ggL
8ff
8eeJ
8ccL
8ee
8ffJ
=
8ggL
8ee
8ggJ
8cccL
8bb
8aaJ
=
8ggL
8ee
8ggJ
8bbL
8aa
8ggJ
!!linebreak:original
=
8ffL
8dd
8ffJ
8aaL
8gg
8ffJ
!!linebreak:original
=
4.ee
8ccL
8ee
8ffJ
=||
8ggL
8ee
8ggJ
8cccL
8bb
8aaJ
=
8ggL
8ee
8ggJ
8bbL
8aa
8ggJ
=
8ffL
8dd
8ffJ
8aaL
8gg
8ffJ
=
8ggL
8ff
8eeJ
8ccL
8ee
8ffJ
=
8ggL
8ee
8ggJ
8cccL
8bb
8aaJ
=
8ggL
8ee
8ggJ
8bbL
8aa
8ggJ
!!linebreak:original
=
8ffL
8dd
8ffJ
8aaL
8gg
8ffJ
=
4.ee
8eeL
8ee
8eeJ
=||
8eeL
8dd
8eeJ
8ffL
8ee
8ddJ
=
8eeL
8dd
8ccJ
8eeL
8dd
8ccJ
=
8ddL
8cc
8bJ
8ffL
8ee
8ddJ
=
8eeL
8dd
8ccJ
8eeL
8ee
8eeJ
=
8eeL
8dd
8eeJ
8ffL
8ee
8ddJ
!!linebreak:original
=
8eeL
8dd
8ccJ
8eeL
8dd
8ccJ
=
8ddL
8cc
8bJ
8ffL
8ee
8ddJ
=
4.cc
8eeL
8ee
8eeJ
=||
8eeL
8dd
8eeJ
8ffL
8ee
8ddJ
=
8eeL
8dd
8ccJ
8eeL
8dd
8ccJ
=
8ddL
8cc
8bJ
8ffL
8ee
8ddJ
=
8eeL
8dd
8ccJ
8eeL
8ee
8eeJ
!!linebreak:original
=
8eeL
8dd
8eeJ
8ffL
8ee
8ddJ
!!linebreak:original
=
8eeL
8dd
8ccJ
8eeL
8dd
8ccJ
=
8ddL
8cc
8bJ
8ffL
8ee
8ddJ
=||
4.cc
8ccL
8ee
8ffJ
=||
8cc
8r
2r
==
*-
